assets/icons/24px/stroke/expand-vertical-24px.svg

<svg width="24" height="24" viewBox="0 0 24 24" fill="none" xmlns="http://www.w3.org/2000/svg">
<g clip-path="url(#clip0_878_25125)">
<g clip-path="url(#clip1_878_25125)">
<path fill-rule="evenodd" clip-rule="evenodd" d="M17.716 9.57302C17.3304 9.96845 16.6973 9.97647 16.3019 9.59092L14.0943 7.43851C13.4147 6.77594 12.9748 6.34993 12.6091 6.07738C12.2666 5.82215 12.1064 5.79321 12 5.79321C11.8936 5.79321 11.7334 5.82215 11.3909 6.07738C11.0252 6.34993 10.5853 6.77594 9.9057 7.43851L7.6981 9.59092C7.30266 9.97647 6.66955 9.96845 6.284 9.57302C5.89845 9.17758 5.90646 8.54447 6.3019 8.15892L8.55589 5.96127C9.17575 5.35684 9.71065 4.83526 10.1958 4.47369C10.7163 4.08582 11.2928 3.79321 12 3.79321C12.7072 3.79321 13.2837 4.08582 13.8042 4.47369C14.2894 4.83526 14.8243 5.35684 15.4441 5.96127C15.4595 5.9763 15.475 5.99138 15.4905 6.00651L17.6981 8.15892C18.0935 8.54447 18.1015 9.17758 17.716 9.57302ZM17.716 14.4268C18.1015 14.8223 18.0935 15.4554 17.6981 15.8409L15.4441 18.0386C14.8242 18.643 14.2893 19.1646 13.8042 19.5261C13.2837 19.914 12.7072 20.2066 12 20.2066C11.2928 20.2066 10.7163 19.914 10.1958 19.5261C9.71065 19.1646 9.17575 18.643 8.5559 18.0386L6.3019 15.8409C5.90646 15.4554 5.89845 14.8223 6.284 14.4268C6.66955 14.0314 7.30266 14.0234 7.6981 14.4089L9.9057 16.5613C10.5853 17.2239 11.0252 17.6499 11.3909 17.9225C11.7334 18.1777 11.8936 18.2066 12 18.2066C12.1064 18.2066 12.2666 18.1777 12.6091 17.9225C12.9748 17.6499 13.4147 17.2239 14.0943 16.5613L16.3019 14.4089C16.6973 14.0234 17.3304 14.0314 17.716 14.4268Z" fill="white"/>
</g>
</g>
<defs>
<clipPath id="clip0_878_25125">
<rect width="24" height="24" fill="white"/>
</clipPath>
<clipPath id="clip1_878_25125">
<rect width="24" height="24" fill="white" transform="translate(24) rotate(90)"/>
</clipPath>
</defs>
</svg>

<svg width="24" height="24" fill="none" xmlns="http://www.w3.org/2000/svg"><g clip-path="url(#clip0_878_25125)"><g clip-path="url(#clip1_878_25125)"><path fill-rule="evenodd" clip-rule="evenodd" d="M17.716 9.573a1 1 0 0 1-1.414.018l-2.208-2.152c-.68-.663-1.12-1.09-1.485-1.362-.342-.255-.503-.284-.609-.284-.106 0-.267.03-.61.284-.365.273-.805.699-1.484 1.362L7.698 9.59a1 1 0 0 1-1.396-1.432L8.556 5.96c.62-.604 1.155-1.126 1.64-1.487.52-.388 1.097-.68 1.804-.68.707 0 1.284.292 1.804.68.485.361 1.02.883 1.64 1.487l.046.046 2.208 2.152a1 1 0 0 1 .018 1.414zm0 4.854a1 1 0 0 1-.018 1.414l-2.254 2.198c-.62.604-1.155 1.126-1.64 1.487-.52.388-1.097.68-1.804.68-.707 0-1.284-.292-1.804-.68-.485-.361-1.02-.883-1.64-1.487L6.302 15.84a1 1 0 1 1 1.396-1.432l2.208 2.152c.68.663 1.12 1.089 1.485 1.361.342.256.503.285.609.285.106 0 .267-.03.61-.285.365-.272.805-.698 1.484-1.36l2.208-2.153a1 1 0 0 1 1.414.018z" fill="#fff"/></g></g><defs><clipPath id="clip0_878_25125"><path fill="#fff" d="M0 0H24V24H0z"/></clipPath><clipPath id="clip1_878_25125"><path fill="#fff" transform="rotate(90 12 12)" d="M0 0H24V24H0z"/></clipPath></defs></svg>
